X:60
%%pagewidth 7.5in
%%score 1 2
T:Dulcina
M:C
L:1/8
K:C
V:1 clef-treble
V:2 clef-bass octave=-1
V:1 
[Ec]2edc2G2|E2C2G2[FG]2|[Gc]2G2[Gd]2(ed)|[GB]2([^FA]G)G4|
w: From O-*beron, in fai-ry-land, The king of ghosts and* sha-dows* there,
V:2
[CG]8-|[CG]6[DB]2|[Ec]4[B,G]4|[Dd]2[Dc]2B4&x4G2=F2|
V:1
[Gc]2edc2G2|E2C2G2[B,FG]2|[CEc]2G2[CFA]2([EG][DF])|[CE]2([B,D]C)C4||
w:Mad Robin* I, at his command,* Am sent to view the* night-sports* here.
V:2
E8-&c8|E6D2|C4F,4|[G,G]2[G,F]2[CE]4||
V:1
!p!E2A^GA2B2&C4C4|[EAc]2[CA]2[E^GB]2[EGe]2|[EAe]2A2[A(f]e)(dc)|[^G(B]c)(BA)A4|
w:What re-vel rout Is kept a-bout, In ev'ry* cor* ner* where* I* go,
V:2
A,4F4|E6D2|C4D4|[Ed]4[Ac]4|
V:1
!f![Ec]2edc2G2|E2C2G2[FG]2|[Gc]2G2[CFA]2([EG][DF])|[CE]2[B,(D]C)C4||
w:I will o'er-see, And mer-ry be, And make good sport, With* ho, ho,* ho!
V:2
[CG]8-|[CG]6[DB]2|[Ec]4F4|G2[G,F]2[CE]4||

